build/Karasa-Jaga/scalable/actions/go-next-rtl-symbolic.svg

<svg height="16" width="16" xmlns="http://www.w3.org/2000/svg"><path d="m8.8027343 2.2597656-7.87500005 5.7480469c.00135.0052.00265.010406.00391.015625l7.85937505 5.7324215 1.0566406-1.05664-2.3378906-2.337891c-.5916105-.5917054-2.1726719-1.6033244-1.3359413-1.6035155h8.898438v-1.4902344h-8.9257817c-.8367327-.0001876.7443255-1.0118089 1.3359375-1.6035156l2.3496094-2.3496094z" fill="#bebebe"/></svg>

<?xml version="1.0" encoding="UTF-8" standalone="no"?>
<!-- Created with Inkscape (http://www.inkscape.org/) -->

<svg
   xmlns:dc="http://purl.org/dc/elements/1.1/"
   xmlns:cc="http://creativecommons.org/ns#"
   xmlns:rdf="http://www.w3.org/1999/02/22-rdf-syntax-ns#"
   xmlns:svg="http://www.w3.org/2000/svg"
   xmlns="http://www.w3.org/2000/svg"
   xmlns:sodipodi="http://sodipodi.sourceforge.net/DTD/sodipodi-0.dtd"
   xmlns:inkscape="http://www.inkscape.org/namespaces/inkscape"
   width="16px"
   height="16px"
   id="svg13294"
   version="1.1"
   inkscape:version="0.92.2 (unknown)"
   sodipodi:docname="go-next-rtl-symbolic.svg">
  <defs
     id="defs13296" />
  <sodipodi:namedview
     id="base"
     pagecolor="#ffffff"
     bordercolor="#666666"
     borderopacity="1.0"
     inkscape:pageopacity="0.0"
     inkscape:pageshadow="2"
     inkscape:zoom="16"
     inkscape:cx="-8.9057193"
     inkscape:cy="7.2323592"
     inkscape:current-layer="layer1"
     showgrid="true"
     inkscape:grid-bbox="true"
     inkscape:document-units="px"
     inkscape:window-width="1366"
     inkscape:window-height="706"
     inkscape:window-x="0"
     inkscape:window-y="0"
     inkscape:window-maximized="1" />
  <metadata
     id="metadata13299">
    <rdf:RDF>
      <cc:Work
         rdf:about="">
        <dc:format>image/svg+xml</dc:format>
        <dc:type
           rdf:resource="http://purl.org/dc/dcmitype/StillImage" />
        <dc:title></dc:title>
      </cc:Work>
    </rdf:RDF>
  </metadata>
  <g
     id="layer1"
     inkscape:label="Layer 1"
     inkscape:groupmode="layer">
    <path
       style="color:#000000;display:inline;overflow:visible;visibility:visible;fill:#bebebe;fill-opacity:1;fill-rule:nonzero;stroke:none;stroke-width:1;marker:none;enable-background:accumulate"
       d="M 8.8027343,2.2597656 0.92773425,8.0078125 c 0.00135,0.0052 0.00265,0.010406 0.00391,0.015625 L 8.7910193,13.755859 9.8476599,12.699219 7.5097693,10.361328 C 6.9181588,9.7696226 5.3370974,8.7580036 6.173828,8.7578125 h 8.898438 V 7.2675781 H 6.1464843 C 5.3097516,7.2673905 6.8908098,6.2557692 7.4824218,5.6640625 L 9.8320312,3.3144531 Z"
       id="path29297"
       inkscape:connector-curvature="0"
       sodipodi:nodetypes="ccccccccccccc" />
  </g>
</svg>
